svgs/1F91B-1F3FF.svg

<svg xmlns="http://www.w3.org/2000/svg" xmlns:xlink="http://www.w3.org/1999/xlink" preserveAspectRatio="none" viewBox="0 0 72 72"><defs><path id="a" fill="#8E726A" d="M101.65 20.75q-5.85.5-7.3.55-8.3.3-19.6 1.9-5.45.75-19.5 3.1-12.55 2.1-25.1 5.55-13.3 3.6-16.5 6.1Q7.8 42.4 6.5 51.3q-.65 4.15-.5 9.3.05 3.35.6 9.3.95 10.95 2.65 17.5 1.65 6.7 6.4 7.95 2.85.8 7.9-.2 2.95-.55 7.7-2.05-1.35 4.45 2.5 9.8 3.7 5.15 7 4.7 7.5-1.05 15.05-4.85 4.35-2.2 12.25-7.1 5-2.9 9.4-7.5 3.6-3.7 7.5-9.45.35-.8 4.8-4.65 4.5-4 6.15-4.85 1.75-.95 5.9-1.75 3.9-.75 6.55-.7 8-.6 11.45-9.3 2.2-5.65 2.2-13.5-.1-10.55-2.85-17.45-2.25-5.6-10.25-6-2.65-.15-7.25.25z"/><path id="b" fill="#563E37" d="M27.65 69.4q3.55-3 4.25-3.55 3.35-2.55 5.05-3.65 3.5-2.15 8.05-3.85 1.95-.75 4.3-.35 2.75.4 3.85 2.35.35.7 1.25.8.85.1 1.55-.45.65-.5.75-1.3.1-.85-.4-1.5-1.9-2.5-5.6-3.35-3.45-.75-6.35.3-5.55 2.1-11.15 6.25-4.75 3.55-7 6.5-.75 1-1.15 1.9-.6 1.35 0 1.75.2.2 2.6-1.85z"/><path id="c" fill="#563E37" d="M39.8 81.65q-.6.5-6.8 4.5-6.4 4.65-9.2 8.95 5.7-1.25 7.45-2 .85-1.55 2.7-2.9.5-.4 4.05-2.6 2.15-1.3 4.15-2.7Q54.2 76.2 56.5 69.8q1.45-4.1.95-7.95-.5-3.85-2.85-6.95-2.55-3.35-6.8-5.3-4.05-1.9-6.5-1.15-1.4.4-1 .75.15.15 2.3 1.05 5.55 2.3 8.8 6.45 1.5 1.9 2 4.7.65 3.45-.65 7.05-1.85 5.25-12.95 13.2z"/></defs><use transform="scale(.5625)" xlink:href="#a"/><use transform="scale(.5625)" xlink:href="#b"/><use transform="scale(.5625)" xlink:href="#c"/></svg>

<svg xmlns="http://www.w3.org/2000/svg" version="1.1" xmlns:xlink="http://www.w3.org/1999/xlink" preserveAspectRatio="none" x="0px" y="0px" width="72px" height="72px" viewBox="0 0 72 72">
<defs>
<g id="Layer0_0_FILL">
<path fill="#8E726A" stroke="none" d="
M 101.65 20.75
Q 95.8 21.25 94.35 21.3 86.05 21.6 74.75 23.2 69.3 23.95 55.25 26.3 42.7 28.4 30.15 31.85 16.85 35.45 13.65 37.95 7.8 42.4 6.5 51.3 5.85 55.45 6 60.6 6.05 63.95 6.6 69.9 7.55 80.85 9.25 87.4 10.9 94.1 15.65 95.35 18.5 96.15 23.55 95.15 26.5 94.6 31.25 93.1 29.9 97.55 33.75 102.9 37.45 108.05 40.75 107.6 48.25 106.55 55.8 102.75 60.15 100.55 68.05 95.65 73.05 92.75 77.45 88.15 81.05 84.45 84.95 78.7 85.3 77.9 89.75 74.05 94.25 70.05 95.9 69.2 97.65 68.25 101.8 67.45 105.7 66.7 108.35 66.75 116.35 66.15 119.8 57.45 122 51.8 122 43.95 121.9 33.4 119.15 26.5 116.9 20.9 108.9 20.5 106.25 20.35 101.65 20.75 Z"/>
</g>

<g id="Layer0_1_FILL">
<path fill="#563E37" stroke="none" d="
M 27.65 69.4
Q 31.2 66.4 31.9 65.85 35.25 63.3 36.95 62.2 40.45 60.05 45 58.35 46.95 57.6 49.3 58 52.05 58.4 53.15 60.35 53.5 61.05 54.4 61.15 55.25 61.25 55.95 60.7 56.6 60.2 56.7 59.4 56.8 58.55 56.3 57.9 54.4 55.4 50.7 54.55 47.25 53.8 44.35 54.85 38.8 56.95 33.2 61.1 28.45 64.65 26.2 67.6 25.45 68.6 25.05 69.5 24.45 70.85 25.05 71.25 25.25 71.45 27.65 69.4 Z"/>
</g>

<g id="Layer0_2_FILL">
<path fill="#563E37" stroke="none" d="
M 39.8 81.65
Q 39.2 82.15 33 86.15 26.6 90.8 23.8 95.1 29.5 93.85 31.25 93.1 32.1 91.55 33.95 90.2 34.45 89.8 38 87.6 40.15 86.3 42.15 84.9 54.2 76.2 56.5 69.8 57.95 65.7 57.45 61.85 56.95 58 54.6 54.9 52.05 51.55 47.8 49.6 43.75 47.7 41.3 48.45 39.9 48.85 40.3 49.2 40.45 49.35 42.6 50.25 48.15 52.55 51.4 56.7 52.9 58.6 53.4 61.4 54.05 64.85 52.75 68.45 50.9 73.7 39.8 81.65 Z"/>
</g>
</defs>

<g id="Layer_1">
<g transform="matrix( 0.5625, 0, 0, 0.5625, 0,0) ">
<use xlink:href="#Layer0_0_FILL"/>
</g>

<g transform="matrix( 0.5625, 0, 0, 0.5625, 0,0) ">
<use xlink:href="#Layer0_1_FILL"/>
</g>

<g transform="matrix( 0.5625, 0, 0, 0.5625, 0,0) ">
<use xlink:href="#Layer0_2_FILL"/>
</g>
</g>
</svg>
